X:225 
T:When Sick Is It Tea You Want?  
B:CRE 3.027 (Tae ab' ea Theastaionn is TÃÂÃÂÃÂÃÂº Tinn?)
F:file ID: cre.3/225when_s
N:Gaelic title provides a great object lesson in why NOT to 
back-translate tune titles!
Q:160
L:1/8
M:6/8
R:jig
K:D
Add dcB|A^GB AF=G|AdB cde|fdB BAF|
Add dcB|A^GB AF=G|AdB cde|1 fdc d3:|\
[2 fdc de/f/g||
|:afd dcd|BGF G (3fga|bge e^de|cAA AFG|
Add fdB|AFB AFG|~A3 cde|1 fdc de/f/g:|\
[2 fdc Hd3 |]

%%%

